icons/ng.svg

<?xml version="1.0" ?>
<svg xmlns="http://www.w3.org/2000/svg" xmlns:ev="http://www.w3.org/2001/xml-events" xmlns:xlink="http://www.w3.org/1999/xlink" baseProfile="full" height="488px" version="1.1" viewBox="-1025.375330753881 125.1112850406488 12286.942556410555 9990.710686002289" width="600px">
	<defs/>
	<path d="M 2442.0,9265.0 C 2391.0,9255.0 2371.0,9245.0 2339.0,9214.0 L 2299.0,9175.0 L 2151.0,9172.0 C 2027.0,9169.0 2002.0,9171.0 1991.0,9184.0 C 1973.0,9206.0 1966.0,9205.0 1779.0,9164.0 L 1615.0,9128.0 L 1525.0,9039.0 C 1446.0,8961.0 1430.0,8950.0 1400.0,8950.0 C 1339.0,8950.0 1337.0,8945.0 1345.0,8823.0 C 1352.0,8723.0 1350.0,8704.0 1325.0,8605.0 C 1288.0,8458.0 1218.0,8351.0 1110.0,8277.0 C 1085.0,8260.0 1035.0,8220.0 998.0,8187.0 L 930.0,8128.0 L 930.0,8028.0 C 930.0,7969.0 923.0,7903.0 914.0,7867.0 C 897.0,7802.0 901.0,7743.0 925.0,7700.0 C 937.0,7678.0 936.0,7673.0 918.0,7653.0 C 889.0,7622.0 885.0,7565.0 908.0,7499.0 L 927.0,7444.0 L 861.0,7377.0 C 815.0,7331.0 789.0,7295.0 777.0,7263.0 C 745.0,7172.0 746.0,7168.0 858.0,7019.0 C 942.0,6908.0 960.0,6877.0 960.0,6848.0 C 960.0,6829.0 967.0,6790.0 976.0,6760.0 C 984.0,6731.0 989.0,6698.0 986.0,6686.0 C 983.0,6674.0 983.0,6648.0 987.0,6627.0 C 991.0,6599.0 1000.0,6585.0 1021.0,6574.0 C 1049.0,6560.0 1050.0,6558.0 1050.0,6478.0 C 1050.0,6376.0 1026.0,6290.0 996.0,6290.0 C 986.0,6290.0 968.0,6298.0 958.0,6307.0 C 922.0,6339.0 885.0,6311.0 834.0,6212.0 C 823.0,6191.0 848.0,6122.0 869.0,6115.0 C 917.0,6100.0 919.0,6063.0 875.0,6016.0 C 855.0,5994.0 850.0,5978.0 850.0,5936.0 C 850.0,5890.0 846.0,5880.0 818.0,5853.0 C 794.0,5830.0 772.0,5820.0 735.0,5815.0 C 707.0,5811.0 668.0,5796.0 646.0,5782.0 C 609.0,5757.0 608.0,5754.0 612.0,5708.0 C 617.0,5656.0 611.0,5646.0 567.0,5635.0 C 547.0,5630.0 541.0,5623.0 545.0,5612.0 C 548.0,5603.0 532.0,5578.0 501.0,5545.0 C 443.0,5484.0 431.0,5451.0 454.0,5418.0 C 483.0,5376.0 469.0,5309.0 421.0,5266.0 C 407.0,5253.0 400.0,5235.0 400.0,5209.0 C 400.0,5149.0 381.0,5137.0 291.0,5144.0 C 249.0,5148.0 195.0,5147.0 170.0,5143.0 L 125.0,5135.0 L 113.0,5055.0 C 98.0,4957.0 77.0,4647.0 75.0,4485.0 C 74.0,4410.0 64.0,4318.0 50.0,4239.0 L 27.0,4113.0 L 48.0,4068.0 C 66.0,4032.0 70.0,4006.0 70.0,3929.0 C 70.0,3836.0 71.0,3833.0 100.0,3805.0 C 139.0,3768.0 141.0,3725.0 104.0,3716.0 L 79.0,3709.0 L 83.0,3557.0 C 85.0,3473.0 90.0,3395.0 95.0,3383.0 C 100.0,3365.0 99.0,3360.0 87.0,3360.0 C 59.0,3360.0 46.0,3322.0 59.0,3278.0 C 66.0,3256.0 68.0,3226.0 65.0,3210.0 C 61.0,3192.0 65.0,3170.0 75.0,3150.0 C 88.0,3125.0 90.0,3104.0 84.0,3052.0 C 81.0,3015.0 73.0,2979.0 66.0,2971.0 C 56.0,2958.0 -1.0,2798.0 3.0,2793.0 C 5.0,2792.0 100.0,2795.0 215.0,2801.0 C 331.0,2806.0 481.0,2807.0 550.0,2804.0 C 645.0,2799.0 694.0,2801.0 755.0,2814.0 C 897.0,2842.0 1148.0,2836.0 1290.0,2800.0 C 1309.0,2795.0 1360.0,2788.0 1402.0,2785.0 C 1445.0,2781.0 1491.0,2775.0 1504.0,2772.0 C 1566.0,2755.0 1937.0,2425.0 1972.0,2356.0 C 1983.0,2334.0 2010.0,2294.0 2031.0,2269.0 C 2055.0,2241.0 2070.0,2212.0 2070.0,2196.0 C 2070.0,2180.0 2087.0,2149.0 2115.0,2114.0 C 2140.0,2083.0 2168.0,2041.0 2176.0,2021.0 C 2196.0,1970.0 2268.0,1935.0 2352.0,1935.0 C 2403.0,1935.0 2414.0,1938.0 2429.0,1959.0 L 2447.0,1983.0 L 2453.0,1959.0 C 2458.0,1942.0 2452.0,1928.0 2434.0,1909.0 C 2409.0,1883.0 2408.0,1882.0 2357.0,1896.0 C 2328.0,1904.0 2303.0,1910.0 2300.0,1910.0 C 2297.0,1910.0 2298.0,1868.0 2303.0,1817.0 C 2310.0,1740.0 2321.0,1700.0 2371.0,1570.0 C 2440.0,1394.0 2513.0,1247.0 2550.0,1214.0 C 2580.0,1186.0 2777.0,1028.0 2793.0,1018.0 C 2800.0,1015.0 2831.0,1000.0 2863.0,985.0 C 2914.0,962.0 2929.0,959.0 2993.0,964.0 C 3032.0,967.0 3137.0,974.0 3225.0,979.0 C 3443.0,991.0 3582.0,1009.0 3601.0,1026.0 C 3610.0,1034.0 3638.0,1040.0 3671.0,1040.0 C 3721.0,1040.0 3728.0,1043.0 3748.0,1070.0 C 3767.0,1096.0 3777.0,1100.0 3815.0,1100.0 C 3858.0,1100.0 3860.0,1099.0 3854.0,1075.0 C 3849.0,1055.0 3852.0,1050.0 3873.0,1045.0 C 3888.0,1041.0 3910.0,1045.0 3929.0,1054.0 C 3953.0,1067.0 3960.0,1077.0 3960.0,1100.0 C 3960.0,1136.0 3964.0,1136.0 4015.0,1105.0 C 4037.0,1091.0 4067.0,1080.0 4081.0,1080.0 C 4122.0,1080.0 4203.0,1110.0 4225.0,1134.0 C 4243.0,1153.0 4257.0,1155.0 4393.0,1158.0 C 4520.0,1161.0 4549.0,1164.0 4605.0,1186.0 L 4671.0,1210.0 L 4710.0,1190.0 C 4762.0,1164.0 4790.0,1165.0 4831.0,1195.0 C 4850.0,1208.0 4875.0,1225.0 4888.0,1231.0 C 4900.0,1238.0 4910.0,1250.0 4910.0,1259.0 C 4910.0,1277.0 4849.0,1381.0 4814.0,1423.0 C 4801.0,1439.0 4790.0,1458.0 4790.0,1466.0 C 4790.0,1489.0 4864.0,1447.0 4878.0,1416.0 C 4884.0,1402.0 4894.0,1390.0 4900.0,1390.0 C 4906.0,1390.0 4922.0,1378.0 4935.0,1364.0 C 4957.0,1341.0 4962.0,1339.0 4977.0,1351.0 C 4992.0,1364.0 4993.0,1362.0 4986.0,1337.0 C 4980.0,1310.0 4992.0,1280.0 5010.0,1280.0 C 5025.0,1280.0 5080.0,1344.0 5080.0,1361.0 C 5080.0,1392.0 5092.0,1410.0 5111.0,1410.0 C 5121.0,1410.0 5130.0,1416.0 5131.0,1423.0 C 5131.0,1429.0 5133.0,1447.0 5134.0,1461.0 C 5135.0,1476.0 5148.0,1504.0 5164.0,1524.0 C 5179.0,1544.0 5204.0,1589.0 5220.0,1623.0 C 5235.0,1657.0 5257.0,1693.0 5268.0,1704.0 C 5293.0,1726.0 5311.0,1804.0 5303.0,1853.0 C 5299.0,1880.0 5303.0,1895.0 5319.0,1916.0 C 5330.0,1931.0 5340.0,1957.0 5340.0,1975.0 C 5340.0,1993.0 5349.0,2029.0 5361.0,2054.0 C 5383.0,2105.0 5382.0,2109.0 5331.0,2158.0 L 5308.0,2181.0 L 5330.0,2205.0 C 5348.0,2224.0 5352.0,2237.0 5347.0,2264.0 C 5339.0,2313.0 5360.0,2338.0 5413.0,2342.0 C 5452.0,2345.0 5457.0,2349.0 5480.0,2391.0 C 5524.0,2472.0 5589.0,2547.0 5645.0,2581.0 C 5674.0,2599.0 5715.0,2635.0 5735.0,2662.0 C 5765.0,2700.0 5778.0,2710.0 5798.0,2708.0 C 5819.0,2705.0 5824.0,2711.0 5834.0,2745.0 C 5844.0,2779.0 5852.0,2787.0 5888.0,2800.0 C 5918.0,2812.0 5935.0,2826.0 5948.0,2850.0 C 5962.0,2879.0 5973.0,2886.0 6013.0,2895.0 C 6063.0,2905.0 6089.0,2932.0 6090.0,2974.0 C 6090.0,2985.0 6100.0,3025.0 6112.0,3062.0 L 6134.0,3131.0 L 6173.0,3124.0 C 6212.0,3118.0 6214.0,3119.0 6299.0,3202.0 C 6432.0,3331.0 6439.0,3337.0 6451.0,3320.0 C 6456.0,3312.0 6464.0,3289.0 6470.0,3270.0 C 6485.0,3214.0 6519.0,3200.0 6642.0,3200.0 L 6746.0,3200.0 L 6768.0,3253.0 C 6780.0,3282.0 6790.0,3314.0 6790.0,3324.0 C 6790.0,3358.0 6813.0,3420.0 6825.0,3420.0 C 6832.0,3420.0 6840.0,3407.0 6843.0,3390.0 C 6850.0,3356.0 6928.0,3301.0 6968.0,3300.0 C 6981.0,3300.0 7005.0,3291.0 7021.0,3279.0 C 7045.0,3262.0 7050.0,3251.0 7050.0,3217.0 C 7051.0,3187.0 7058.0,3167.0 7075.0,3148.0 C 7096.0,3124.0 7107.0,3120.0 7154.0,3120.0 C 7207.0,3120.0 7209.0,3119.0 7220.0,3085.0 C 7227.0,3064.0 7229.0,3029.0 7225.0,2998.0 C 7220.0,2957.0 7223.0,2935.0 7238.0,2900.0 C 7271.0,2824.0 7286.0,2816.0 7383.0,2823.0 C 7503.0,2831.0 7515.0,2838.0 7537.0,2906.0 C 7546.0,2937.0 7561.0,2964.0 7570.0,2967.0 C 7627.0,2985.0 7640.0,2994.0 7654.0,3031.0 C 7673.0,3078.0 7674.0,3129.0 7658.0,3164.0 C 7643.0,3198.0 7657.0,3213.0 7772.0,3292.0 C 7819.0,3324.0 7864.0,3358.0 7870.0,3366.0 C 7877.0,3374.0 7893.0,3380.0 7906.0,3380.0 C 7922.0,3380.0 7930.0,3386.0 7930.0,3397.0 C 7930.0,3421.0 7850.0,3540.0 7834.0,3540.0 C 7817.0,3540.0 7815.0,3560.0 7833.0,3560.0 C 7839.0,3560.0 7856.0,3578.0 7868.0,3599.0 C 7881.0,3619.0 7930.0,3676.0 7977.0,3724.0 L 8061.0,3812.0 L 8049.0,3860.0 C 8033.0,3921.0 8041.0,3940.0 8132.0,4080.0 C 8195.0,4175.0 8200.0,4188.0 8195.0,4222.0 C 8190.0,4250.0 8195.0,4271.0 8213.0,4311.0 C 8233.0,4352.0 8236.0,4368.0 8229.0,4388.0 C 8224.0,4402.0 8222.0,4433.0 8226.0,4457.0 C 8230.0,4483.0 8228.0,4505.0 8221.0,4514.0 C 8213.0,4524.0 8215.0,4531.0 8229.0,4544.0 C 8244.0,4557.0 8253.0,4559.0 8275.0,4550.0 C 8290.0,4544.0 8304.0,4541.0 8304.0,4542.0 C 8305.0,4544.0 8321.0,4564.0 8339.0,4588.0 C 8367.0,4625.0 8371.0,4635.0 8365.0,4669.0 C 8359.0,4703.0 8361.0,4708.0 8382.0,4714.0 C 8395.0,4717.0 8428.0,4720.0 8455.0,4720.0 C 8524.0,4721.0 8599.0,4762.0 8623.0,4813.0 C 8635.0,4836.0 8651.0,4852.0 8667.0,4856.0 C 8705.0,4866.0 8723.0,4919.0 8730.0,5050.0 C 8736.0,5136.0 8743.0,5177.0 8759.0,5213.0 C 8771.0,5239.0 8784.0,5282.0 8787.0,5309.0 C 8792.0,5355.0 8791.0,5358.0 8769.0,5362.0 L 8745.0,5365.0 L 8770.0,5385.0 C 8784.0,5396.0 8814.0,5425.0 8837.0,5448.0 C 8872.0,5485.0 8890.0,5494.0 8946.0,5507.0 C 8988.0,5517.0 9023.0,5532.0 9041.0,5549.0 C 9067.0,5572.0 9072.0,5585.0 9081.0,5664.0 C 9086.0,5713.0 9093.0,5757.0 9096.0,5761.0 C 9099.0,5766.0 9092.0,5782.0 9081.0,5796.0 C 9058.0,5825.0 9054.0,5860.0 9070.0,5890.0 C 9076.0,5902.0 9077.0,5918.0 9071.0,5933.0 C 9063.0,5953.0 9066.0,5962.0 9083.0,5978.0 C 9114.0,6005.0 9145.0,6020.0 9173.0,6020.0 C 9200.0,6020.0 9240.0,6058.0 9240.0,6084.0 C 9240.0,6094.0 9246.0,6132.0 9254.0,6169.0 C 9262.0,6205.0 9278.0,6285.0 9290.0,6345.0 C 9302.0,6406.0 9320.0,6469.0 9330.0,6485.0 C 9341.0,6502.0 9367.0,6545.0 9389.0,6581.0 C 9411.0,6618.0 9448.0,6670.0 9470.0,6698.0 C 9503.0,6741.0 9510.0,6757.0 9510.0,6794.0 C 9510.0,6834.0 9513.0,6839.0 9539.0,6848.0 C 9562.0,6856.0 9569.0,6866.0 9575.0,6897.0 C 9586.0,6965.0 9694.0,7060.0 9734.0,7038.0 C 9784.0,7010.0 9806.0,7011.0 9876.0,7047.0 C 9914.0,7066.0 9965.0,7101.0 9990.0,7124.0 C 10015.0,7148.0 10047.0,7170.0 10061.0,7173.0 C 10075.0,7177.0 10111.0,7191.0 10142.0,7204.0 C 10191.0,7226.0 10200.0,7234.0 10215.0,7273.0 C 10224.0,7298.0 10233.0,7332.0 10233.0,7350.0 C 10235.0,7377.0 10230.0,7385.0 10203.0,7399.0 C 10161.0,7420.0 10155.0,7438.0 10180.0,7465.0 C 10207.0,7494.0 10221.0,7571.0 10225.0,7718.0 C 10228.0,7835.0 10227.0,7841.0 10206.0,7851.0 C 10195.0,7857.0 10172.0,7875.0 10155.0,7890.0 C 10139.0,7905.0 10094.0,7934.0 10056.0,7954.0 C 9992.0,7989.0 9982.0,7991.0 9931.0,7985.0 C 9882.0,7980.0 9872.0,7981.0 9851.0,8001.0 C 9831.0,8020.0 9829.0,8029.0 9834.0,8069.0 L 9840.0,8115.0 L 9803.0,8127.0 C 9771.0,8137.0 9760.0,8136.0 9730.0,8120.0 C 9694.0,8102.0 9692.0,8102.0 9663.0,8120.0 C 9646.0,8130.0 9629.0,8148.0 9625.0,8159.0 C 9622.0,8170.0 9601.0,8193.0 9579.0,8210.0 L 9540.0,8242.0 L 9540.0,8320.0 C 9540.0,8383.0 9537.0,8401.0 9523.0,8408.0 C 9509.0,8417.0 9509.0,8419.0 9528.0,8429.0 C 9555.0,8443.0 9560.0,8510.0 9534.0,8510.0 C 9526.0,8510.0 9522.0,8515.0 9525.0,8520.0 C 9529.0,8526.0 9526.0,8538.0 9519.0,8546.0 C 9510.0,8557.0 9510.0,8564.0 9518.0,8572.0 C 9532.0,8586.0 9534.0,8630.0 9522.0,8630.0 C 9517.0,8630.0 9505.0,8621.0 9495.0,8610.0 C 9470.0,8582.0 9444.0,8585.0 9423.0,8618.0 C 9393.0,8666.0 9358.0,8699.0 9324.0,8710.0 C 9299.0,8718.0 9283.0,8735.0 9259.0,8776.0 C 9238.0,8813.0 9216.0,8837.0 9190.0,8850.0 C 9144.0,8873.0 9139.0,8881.0 9129.0,8935.0 C 9125.0,8957.0 9116.0,8996.0 9109.0,9022.0 C 9100.0,9058.0 9099.0,9079.0 9107.0,9105.0 C 9117.0,9136.0 9116.0,9140.0 9100.0,9140.0 C 9089.0,9140.0 9064.0,9113.0 9033.0,9068.0 C 8980.0,8989.0 8950.0,8972.0 8892.0,8991.0 C 8865.0,9000.0 8847.0,8997.0 8782.0,8976.0 C 8711.0,8951.0 8701.0,8944.0 8645.0,8880.0 C 8612.0,8841.0 8580.0,8810.0 8573.0,8810.0 C 8566.0,8810.0 8556.0,8801.0 8549.0,8789.0 C 8542.0,8774.0 8535.0,8771.0 8528.0,8778.0 C 8514.0,8792.0 8491.0,8783.0 8457.0,8751.0 C 8436.0,8731.0 8431.0,8720.0 8435.0,8699.0 C 8439.0,8680.0 8436.0,8671.0 8425.0,8666.0 C 8416.0,8663.0 8402.0,8644.0 8394.0,8624.0 L 8379.0,8587.0 L 8312.0,8594.0 C 8275.0,8598.0 8227.0,8606.0 8205.0,8611.0 C 8183.0,8617.0 8141.0,8619.0 8112.0,8616.0 C 8059.0,8610.0 8056.0,8611.0 7942.0,8678.0 C 7811.0,8755.0 7783.0,8767.0 7619.0,8810.0 C 7507.0,8839.0 7495.0,8840.0 7274.0,8841.0 C 7148.0,8842.0 7032.0,8845.0 7015.0,8849.0 C 6980.0,8857.0 6875.0,8840.0 6775.0,8810.0 C 6737.0,8799.0 6647.0,8783.0 6576.0,8775.0 C 6505.0,8766.0 6442.0,8757.0 6436.0,8754.0 C 6360.0,8713.0 6220.0,8612.0 6220.0,8598.0 C 6220.0,8586.0 6212.0,8580.0 6197.0,8580.0 C 6179.0,8580.0 6150.0,8551.0 6074.0,8455.0 L 5976.0,8331.0 L 5930.0,8336.0 C 5905.0,8339.0 5858.0,8346.0 5825.0,8351.0 C 5785.0,8358.0 5756.0,8358.0 5739.0,8351.0 C 5721.0,8345.0 5667.0,8346.0 5569.0,8355.0 C 5454.0,8365.0 5399.0,8376.0 5295.0,8408.0 C 5183.0,8443.0 5162.0,8453.0 5140.0,8481.0 C 5075.0,8565.0 5055.0,8580.0 5002.0,8580.0 C 4959.0,8580.0 4946.0,8585.0 4908.0,8617.0 C 4850.0,8666.0 4681.0,8775.0 4650.0,8783.0 C 4636.0,8787.0 4581.0,8795.0 4528.0,8800.0 L 4430.0,8809.0 L 4256.0,8705.0 C 4071.0,8593.0 4046.0,8585.0 3971.0,8611.0 C 3941.0,8622.0 3937.0,8620.0 3885.0,8571.0 L 3831.0,8520.0 L 3746.0,8520.0 L 3662.0,8520.0 L 3622.0,8565.0 C 3583.0,8610.0 3565.0,8642.0 3511.0,8762.0 C 3495.0,8798.0 3473.0,8833.0 3463.0,8838.0 C 3453.0,8844.0 3409.0,8889.0 3365.0,8939.0 C 3282.0,9034.0 3235.0,9072.0 3169.0,9095.0 C 3134.0,9108.0 3125.0,9107.0 3096.0,9093.0 C 3063.0,9078.0 3062.0,9078.0 2803.0,9179.0 C 2660.0,9234.0 2535.0,9279.0 2524.0,9279.0 C 2514.0,9278.0 2477.0,9272.0 2442.0,9265.0" fill="pink"/>
</svg>

<?xml version="1.0" standalone="no"?>
<!DOCTYPE svg PUBLIC "-//W3C//DTD SVG 20010904//EN"
 "http://www.w3.org/TR/2001/REC-SVG-20010904/DTD/svg10.dtd">
<svg version="1.0" xmlns="http://www.w3.org/2000/svg"
 width="1024.000000pt" height="1024.000000pt" viewBox="0 0 1024.000000 1024.000000"
 preserveAspectRatio="xMidYMid meet">
<metadata>
Created by potrace 1.10, written by Peter Selinger 2001-2011
</metadata>
<g transform="translate(0.000000,1024.000000) scale(0.100000,-0.100000)"
fill="#000000" stroke="none">
<path d="M2442 9265 c-51 -10 -71 -20 -103 -51 l-40 -39 -148 -3 c-124 -3
-149 -1 -160 12 -18 22 -25 21 -212 -20 l-164 -36 -90 -89 c-79 -78 -95 -89
-125 -89 -61 0 -63 -5 -55 -127 7 -100 5 -119 -20 -218 -37 -147 -107 -254
-215 -328 -25 -17 -75 -57 -112 -90 l-68 -59 0 -100 c0 -59 -7 -125 -16 -161
-17 -65 -13 -124 11 -167 12 -22 11 -27 -7 -47 -29 -31 -33 -88 -10 -154 l19
-55 -66 -67 c-46 -46 -72 -82 -84 -114 -32 -91 -31 -95 81 -244 84 -111 102
-142 102 -171 0 -19 7 -58 16 -88 8 -29 13 -62 10 -74 -3 -12 -3 -38 1 -59 4
-28 13 -42 34 -53 28 -14 29 -16 29 -96 0 -102 -24 -188 -54 -188 -10 0 -28 8
-38 17 -36 32 -73 4 -124 -95 -11 -21 14 -90 35 -97 48 -15 50 -52 6 -99 -20
-22 -25 -38 -25 -80 0 -46 -4 -56 -32 -83 -24 -23 -46 -33 -83 -38 -28 -4 -67
-19 -89 -33 -37 -25 -38 -28 -34 -74 5 -52 -1 -62 -45 -73 -20 -5 -26 -12 -22
-23 3 -9 -13 -34 -44 -67 -58 -61 -70 -94 -47 -127 29 -42 15 -109 -33 -152
-14 -13 -21 -31 -21 -57 0 -60 -19 -72 -109 -65 -42 4 -96 3 -121 -1 l-45 -8
-12 -80 c-15 -98 -36 -408 -38 -570 -1 -75 -11 -167 -25 -246 l-23 -126 21
-45 c18 -36 22 -62 22 -139 0 -93 1 -96 30 -124 39 -37 41 -80 4 -89 l-25 -7
4 -152 c2 -84 7 -162 12 -174 5 -18 4 -23 -8 -23 -28 0 -41 -38 -28 -82 7 -22
9 -52 6 -68 -4 -18 0 -40 10 -60 13 -25 15 -46 9 -98 -3 -37 -11 -73 -18 -81
-10 -13 -67 -173 -63 -178 2 -1 97 2 212 8 116 5 266 6 335 3 95 -5 144 -3
205 10 142 28 393 22 535 -14 19 -5 70 -12 112 -15 43 -4 89 -10 102 -13 62
-17 433 -347 468 -416 11 -22 38 -62 59 -87 24 -28 39 -57 39 -73 0 -16 17
-47 45 -82 25 -31 53 -73 61 -93 20 -51 92 -86 176 -86 51 0 62 3 77 24 l18
24 6 -24 c5 -17 -1 -31 -19 -50 -25 -26 -26 -27 -77 -13 -29 8 -54 14 -57 14
-3 0 -2 -42 3 -93 7 -77 18 -117 68 -247 69 -176 142 -323 179 -356 30 -28
227 -186 243 -196 7 -3 38 -18 70 -33 51 -23 66 -26 130 -21 39 3 144 10 232
15 218 12 357 30 376 47 9 8 37 14 70 14 50 0 57 3 77 30 19 26 29 30 67 30
43 0 45 -1 39 -25 -5 -20 -2 -25 19 -30 15 -4 37 0 56 9 24 13 31 23 31 46 0
36 4 36 55 5 22 -14 52 -25 66 -25 41 0 122 30 144 54 18 19 32 21 168 24 127
3 156 6 212 28 l66 24 39 -20 c52 -26 80 -25 121 5 19 13 44 30 57 36 12 7 22
19 22 28 0 18 -61 122 -96 164 -13 16 -24 35 -24 43 0 23 74 -19 88 -50 6 -14
16 -26 22 -26 6 0 22 -12 35 -26 22 -23 27 -25 42 -13 15 13 16 11 9 -14 -6
-27 6 -57 24 -57 15 0 70 64 70 81 0 31 12 49 31 49 10 0 19 6 20 13 0 6 2 24
3 38 1 15 14 43 30 63 15 20 40 65 56 99 15 34 37 70 48 81 25 22 43 100 35
149 -4 27 0 42 16 63 11 15 21 41 21 59 0 18 9 54 21 79 22 51 21 55 -30 104
l-23 23 22 24 c18 19 22 32 17 59 -8 49 13 74 66 78 39 3 44 7 67 49 44 81
109 156 165 190 29 18 70 54 90 81 30 38 43 48 63 46 21 -3 26 3 36 37 10 34
18 42 54 55 30 12 47 26 60 50 14 29 25 36 65 45 50 10 76 37 77 79 0 11 10
51 22 88 l22 69 39 -7 c39 -6 41 -5 126 78 133 129 140 135 152 118 5 -8 13
-31 19 -50 15 -56 49 -70 172 -70 l104 0 22 53 c12 29 22 61 22 71 0 34 23 96
35 96 7 0 15 -13 18 -30 7 -34 85 -89 125 -90 13 0 37 -9 53 -21 24 -17 29
-28 29 -62 1 -30 8 -50 25 -69 21 -24 32 -28 79 -28 53 0 55 -1 66 -35 7 -21
9 -56 5 -87 -5 -41 -2 -63 13 -98 33 -76 48 -84 145 -77 120 8 132 15 154 83
9 31 24 58 33 61 57 18 70 27 84 64 19 47 20 98 4 133 -15 34 -1 49 114 128
47 32 92 66 98 74 7 8 23 14 36 14 16 0 24 6 24 17 0 24 -80 143 -96 143 -17
0 -19 20 -1 20 6 0 23 18 35 39 13 20 62 77 109 125 l84 88 -12 48 c-16 61 -8
80 83 220 63 95 68 108 63 142 -5 28 0 49 18 89 20 41 23 57 16 77 -5 14 -7
45 -3 69 4 26 2 48 -5 57 -8 10 -6 17 8 30 15 13 24 15 46 6 15 -6 29 -9 29
-8 1 2 17 22 35 46 28 37 32 47 26 81 -6 34 -4 39 17 45 13 3 46 6 73 6 69 1
144 42 168 93 12 23 28 39 44 43 38 10 56 63 63 194 6 86 13 127 29 163 12 26
25 69 28 96 5 46 4 49 -18 53 l-24 3 25 20 c14 11 44 40 67 63 35 37 53 46
109 59 42 10 77 25 95 42 26 23 31 36 40 115 5 49 12 93 15 97 3 5 -4 21 -15
35 -23 29 -27 64 -11 94 6 12 7 28 1 43 -8 20 -5 29 12 45 31 27 62 42 90 42
27 0 67 38 67 64 0 10 6 48 14 85 8 36 24 116 36 176 12 61 30 124 40 140 11
17 37 60 59 96 22 37 59 89 81 117 33 43 40 59 40 96 0 40 3 45 29 54 23 8 30
18 36 49 11 68 119 163 159 141 50 -28 72 -27 142 9 38 19 89 54 114 77 25 24
57 46 71 49 14 4 50 18 81 31 49 22 58 30 73 69 9 25 18 59 18 77 2 27 -3 35
-30 49 -42 21 -48 39 -23 66 27 29 41 106 45 253 3 117 2 123 -19 133 -11 6
-34 24 -51 39 -16 15 -61 44 -99 64 -64 35 -74 37 -125 31 -49 -5 -59 -4 -80
16 -20 19 -22 28 -17 68 l6 46 -37 12 c-32 10 -43 9 -73 -7 -36 -18 -38 -18
-67 0 -17 10 -34 28 -38 39 -3 11 -24 34 -46 51 l-39 32 0 78 c0 63 -3 81 -17
88 -14 9 -14 11 5 21 27 14 32 81 6 81 -8 0 -12 5 -9 10 4 6 1 18 -6 26 -9 11
-9 18 -1 26 14 14 16 58 4 58 -5 0 -17 -9 -27 -20 -25 -28 -51 -25 -72 8 -30
48 -65 81 -99 92 -25 8 -41 25 -65 66 -21 37 -43 61 -69 74 -46 23 -51 31 -61
85 -4 22 -13 61 -20 87 -9 36 -10 57 -2 83 10 31 9 35 -7 35 -11 0 -36 -27
-67 -72 -53 -79 -83 -96 -141 -77 -27 9 -45 6 -110 -15 -71 -25 -81 -32 -137
-96 -33 -39 -65 -70 -72 -70 -7 0 -17 -9 -24 -21 -7 -15 -14 -18 -21 -11 -14
14 -37 5 -71 -27 -21 -20 -26 -31 -22 -52 4 -19 1 -28 -10 -33 -9 -3 -23 -22
-31 -42 l-15 -37 -67 7 c-37 4 -85 12 -107 17 -22 6 -64 8 -93 5 -53 -6 -56
-5 -170 62 -131 77 -159 89 -323 132 -112 29 -124 30 -345 31 -126 1 -242 4
-259 8 -35 8 -140 -9 -240 -39 -38 -11 -128 -27 -199 -35 -71 -9 -134 -18
-140 -21 -76 -41 -216 -142 -216 -156 0 -12 -8 -18 -23 -18 -18 0 -47 -29
-123 -125 l-98 -124 -46 5 c-25 3 -72 10 -105 15 -40 7 -69 7 -86 0 -18 -6
-72 -5 -170 4 -115 10 -170 21 -274 53 -112 35 -133 45 -155 73 -65 84 -85 99
-138 99 -43 0 -56 5 -94 37 -58 49 -227 158 -258 166 -14 4 -69 12 -122 17
l-98 9 -174 -104 c-185 -112 -210 -120 -285 -94 -30 11 -34 9 -86 -40 l-54
-51 -85 0 -84 0 -40 45 c-39 45 -57 77 -111 197 -16 36 -38 71 -48 76 -10 6
-54 51 -98 101 -83 95 -130 133 -196 156 -35 13 -44 12 -73 -2 -33 -15 -34
-15 -293 86 -143 55 -268 100 -279 100 -10 -1 -47 -7 -82 -14z"/>
</g>
</svg>
